src/lib/packages/icons/src/assets/line/rocket.svg

<svg width="24" height="24" viewBox="0 0 24 24" fill="none" xmlns="http://www.w3.org/2000/svg">
<path d="M15.25 5.78C13.6 5.78 12.25 7.12 12.25 8.77C12.25 10.42 13.6 11.76 15.25 11.76C16.9 11.76 18.25 10.42 18.25 8.77C18.25 7.12 16.9 5.78 15.25 5.78ZM15.25 10.27C14.42 10.27 13.75 9.6 13.75 8.78C13.75 7.96 14.42 7.29001 15.25 7.29001C16.08 7.29001 16.75 7.96 16.75 8.78C16.75 9.6 16.08 10.27 15.25 10.27ZM21.43 3.07C21.36 2.8 21.15 2.59 20.88 2.53C20.64 2.47 14.86 1.12 11.09 4.89C10.58 5.4 10.15 5.90001 9.75 6.38001L7.66 6.83001C5.68 7.15001 3.99999 8.5 3.25999 10.35L2.3 12.74C2.2 13 2.24 13.29 2.42 13.5C2.56 13.67 2.77 13.76 2.99 13.76C3.04 13.76 3.09999 13.76 3.14999 13.74L6.52 12.99C6.47 13.16 6.42 13.33 6.36 13.51C6.23 13.96 6.34 14.44 6.67 14.76L9.19 17.28C9.43 17.52 9.75 17.65 10.08 17.65C10.19 17.65 10.3 17.64 10.4 17.61C10.61 17.55 10.81 17.5 11.01 17.44L10.25 20.83C10.19 21.1 10.28 21.38 10.5 21.56C10.64 21.68 10.81 21.74 10.99 21.74C11.08 21.74 11.18 21.72 11.27 21.69L13.66 20.73C15.52 19.99 16.88 18.31 17.19 16.38L17.63 14.36C18.13 13.95 18.64 13.51 19.18 12.97C22.95 9.19001 21.49 3.31001 21.43 3.06001V3.07ZM4.23 11.98L4.66 10.91C5.2 9.54001 6.45 8.55 7.94 8.31L8.49 8.19001C8.24 8.61001 8.03 9.03001 7.83 9.47001C7.82 9.49001 7.81 9.51 7.8 9.53C7.53 10.11 7.29001 10.72 7.07001 11.35L4.23 11.98ZM10.16 16.13L7.85001 13.82C8.15001 12.81 8.43999 11.93 8.75999 11.11L12.95 15.29C12.13 15.59 11.23 15.85 10.17 16.14L10.16 16.13ZM15.72 16.11C15.49 17.56 14.49 18.8 13.11 19.34L12.04 19.77L12.67 16.96C13.34 16.75 13.96 16.51 14.55 16.26C14.56 16.26 14.58 16.25 14.59 16.24C15.02 16.05 15.43 15.84 15.83 15.61L15.72 16.11ZM14.44 14.66L9.39999 9.63C10.03 8.4 10.85 7.25001 12.15 5.95001C14.76 3.34001 18.73 3.69001 20.07 3.90001C20.31 5.25001 20.74 9.3 18.12 11.92C16.82 13.22 15.7 14.04 14.44 14.66Z" fill="currentColor"/>
</svg>

<svg xmlns="http://www.w3.org/2000/svg" width="24" height="24" fill="none"><path fill="currentColor" d="M15.25 5.78a3 3 0 0 0-3 2.99 3 3 0 0 0 6 0 3 3 0 0 0-3-2.99Zm0 4.49c-.83 0-1.5-.67-1.5-1.49s.67-1.49 1.5-1.49 1.5.67 1.5 1.49-.67 1.49-1.5 1.49Zm6.18-7.2a.737.737 0 0 0-.55-.54c-.24-.06-6.02-1.41-9.79 2.36-.51.51-.94 1.01-1.34 1.49l-2.09.45a5.743 5.743 0 0 0-4.4 3.52l-.96 2.39c-.1.26-.06.55.12.76.14.17.35.26.57.26.05 0 .11 0 .16-.02l3.37-.75c-.05.17-.1.34-.16.52-.13.45-.02.93.31 1.25l2.52 2.52c.24.24.56.37.89.37.11 0 .22-.01.32-.04.21-.06.41-.11.61-.17l-.76 3.39c-.06.27.03.55.25.73.14.12.31.18.49.18.09 0 .19-.02.28-.05l2.39-.96c1.86-.74 3.22-2.42 3.53-4.35l.44-2.02c.5-.41 1.01-.85 1.55-1.39 3.77-3.78 2.31-9.66 2.25-9.91v.01Zm-17.2 8.91.43-1.07c.54-1.37 1.79-2.36 3.28-2.6l.55-.12c-.25.42-.46.84-.66 1.28l-.03.06c-.27.58-.51 1.19-.73 1.82l-2.84.63Zm5.93 4.15-2.31-2.31c.3-1.01.59-1.89.91-2.71l4.19 4.18c-.82.3-1.72.56-2.78.85l-.01-.01Zm5.56-.02a4.195 4.195 0 0 1-2.61 3.23l-1.07.43.63-2.81c.67-.21 1.29-.45 1.88-.7.01 0 .03-.01.04-.02.43-.19.84-.4 1.24-.63l-.11.5Zm-1.28-1.45L9.4 9.63c.63-1.23 1.45-2.38 2.75-3.68 2.61-2.61 6.58-2.26 7.92-2.05.24 1.35.67 5.4-1.95 8.02-1.3 1.3-2.42 2.12-3.68 2.74Z"/></svg>
